X: 2157
T: Şehnâz Seyir
C: Erol Bingöl
O: Turkey
F: http://compmusic.upf.edu/node/140
N: sehnaz--seyir--devrihindi--1--erol_bingol
N: makam= sehnaz
N: form= seyir
N: usul= devrihindi = 7/4
M: 7/4
L: 1/16
K: C _7/8B ^1/4f ^c ^g
Q: 1/4=60
%%MIDI tuningsystem comma53
g4 a4 =b4 =c'3b a2g2 a8  | g2a2 =b2=c'2 b2a2 g2f2 f2e2 e8  | \
w:   |   | 
d'4 =c'4 =b4 b2a4c'2 b2a2 g2f2  | 
w:   | 
g2a2 =b4 a2g2 g2f2 f2e2 e8  | d4 a4 a4 =g4 a2g2 =f2e2 d4  | \
w:   |   | 
g4 =f4 e2f2 e2d2 d2c2 c8  | 
w:   | 
d4 e4 ^3/4f4 =g4 =f2e2 f4 e2d2  | \
w:   | 
c2d2 e2=f2 e2d2 c2B2 B2A2 A8  | |


